X:286
T:Dessus le nostre trilhe
R:Rondeau
C:trad
N:original url: www.wolfram.claranet.de
D:France-Landes de Gascogne-La cornemuse (ocora)
O:Gascogne
Z:Wolfram Dietz
M:2/4
L:1/8
K:C
cd e>f | ec e2 | cc/d/ ef/e/ | dc/B/ cA | cd e>f | ec e2 | cc/d/ ef/e/ | dc/B/ A/B/c/d/ |
ee dd | cB A/B/c/d/ | ee dd | cB A2 | ee dd | cB A/B/c/d/ | ee dd | cB A2 |]
